!!!!SEGMENT: pl-sa--9-a-i-9--005_haydn-joseph--cassatio-in-g-presto.krn
!!!cenid: 17xx:564
!!!COM: Haydn, Joseph
!!!COM-rismid: pe55803
!!!CDT: 1732/03/31-1809/05/31
!!!CNT: Austrian
!!!OPR: Cassatio in G
!!!OTL: Presto
!!!OMV: 005
!!!PDT:
!!!AGN: Secular; Cassation
!!!SMS-siglum: PL-SA
!!!SMS-shelfmark: 9/A I 9
!!!SMS-shelfwork: 001-005 M
!!!SMS-variant:
!!!SMS-altvar:
!!!NIFC-rismid: 1001076831
!!!URL-scan: http://bc.bdsandomierz.pl/dlibra/publication/1275/edition/1243/content
!!!ONB-nifc: UWAGA: części Cassatio: Presto, Menuet, Adagio, Menuet, Presto
**kern	**dynam	**kern	**kern	**dynam	**kern	**dynam
*part4	*part4	*part3	*part2	*part2	*part1	*part1
*staff4	*	*staff3	*staff2	*	*staff1	*
*Iempty	*	*Iviola	*Ivioln	*	*Ivioln	*
*I"Baſso.	*	*I"Viola di Alllo	*I"Violino 2do.	*	*I"Violino # Primo	*
*I'bc	*	*I'vla	*I'vl 2	*	*I'vl 1	*
*clefF4	*	*clefC3	*clefG2	*	*clefG2	*
*k[f#]	*	*k[f#]	*k[f#]	*	*k[f#]	*
*G:	*	*G:	*G:	*	*G:	*
*M2/4	*	*M2/4	*M2/4	*	*M2/4	*
=1	=1	=1	=1	=1	=1	=1
!	!	!	!	!	!LO:TX:a:t=P:problem:w źródle ta adnotacja zapisana na pięciolinii, przed pierwszym taktem	!
!	!	!LO:TX:a:i:t=presto	!LO:TX:a:i:t=Presto	!	!LO:TX:a:i:t=Praesto	!
4G	.	4g	4gg 4b 4d 4G	.	4gg 4b 4d 4G	.
4r	.	4r	4r	.	16gLL	.
.	.	.	.	.	(<16f#	.
.	.	.	.	.	16g	.
.	.	.	.	.	16aJJ)	.
=2	=2	=2	=2	=2	=2	=2
8r	.	8r	8r	.	8gL	.
8AL	.	8bL	8dL	.	8g	.
8c	.	8cc	8e	.	8g	.
8BJ	.	8bJ	8dJ	.	8gJ	.
=3	=3	=3	=3	=3	=3	=3
8AL	.	8aL	8f#L	.	8ccML	.
!	!	!	!LO:SIC:s=8g:v	!	!	!
8GJ	.	8gJ	8f#	.	8b	.
4r	.	4r	8cc	.	8eeM	.
.	.	.	8bJ	.	8ddJ	.
=4	=4	=4	=4	=4	=4	=4
8DL	.	8dL	8aL	.	8ccML	.
8GJ	.	8gJ	8gJ	.	8bJ	.
4r	.	4r	4r	.	4r	.
=5	=5	=5	=5	=5	=5	=5
4G	.	4g	4gg 4b 4d 4G	.	4gg 4b 4d 4G	.
4r	.	4r	4r	.	16gLL	.
.	.	.	.	.	(<16f#	.
.	.	.	.	.	16g	.
.	.	.	.	.	16aJJ)	.
=6	=6	=6	=6	=6	=6	=6
8r	.	8r	8r	.	8gL	.
8BL	.	8bL	8dL	.	8g	.
8c	.	8cc	8e	.	8g	.
8BJ	.	8bJ	8dJ	.	8gJ	.
=7	=7	=7	=7	=7	=7	=7
8AL	.	8aL	8f#L	.	8ccML	.
8GJ	.	8gJ	8g	.	8b	.
4r	.	4r	8cc	.	8eeM	.
.	.	.	8bJ	.	8ddJ	.
=8	=8	=8	=8	=8	=8	=8
8DL	.	8ccL	8aL	.	8ff#L	.
8GJ	.	8bJ	8gJ	.	8ggJ	.
4r	.	4r	4r	.	8r	.
.	.	.	.	.	(>16bbLL	.
.	.	.	.	.	16cc#XJJ)	.
=9	=9	=9	=9	=9	=9	=9
!	!	!	!	!	!LO:SIC:s=4c#:v	!
8r	.	8r	8r	.	4cc	.
(>8G	.	8AL	(<8e	.	.	.
!	!	!	!	!	!LO:TX:a:t=P:problem:mixed beam	!
8F#)	.	8AJ	8f#)	.	8dd\L	.
8r	.	8r	8r	.	(>16ee\L	.
.	.	.	.	.	16g/JJ)	.
!	!	!	!	!	!LO:LB:g=original	!
=10	=10	=10	=10	=10	=10	=10
8r	.	8r	8r	.	4g	.
8BB#XL	.	8AL	8eL	.	.	.
!	!	!	!	!	!LO:TX:a:t=P:problem:mixed beam	!
8CJ	.	8cJ	8dJ	.	8f#/L	.
8r	.	8r	8r	.	16bb\L	.
.	.	.	.	.	16cc#X\JJ	.
=11	=11	=11	=11	=11	=11	=11
!	!	!	!	!	!LO:SIC:s=4c#:v	!
8r	.	8r	8r	.	4cc	.
!	!	!	!	!LO:DY:b:t=p&colon;	!	!
(>8GL	.	8AL	8eL	p	.	.
!	!	!	!	!	!LO:TX:a:t=P:problem:mixed beam	!
8F#)J	.	8AJ	8f#J	.	8dd\L	.
8r	.	8r	8r	.	16ee\L	.
.	.	.	.	.	[<16g/JJ	.
=12	=12	=12	=12	=12	=12	=12
8r	.	8r	8r	.	4g]	.
8C#X/L	.	8AL	8eL	.	.	.
8D/J	.	8cJ	8d	.	8f#\L	.
8r	.	8r	8aJ	.	[>8dd\J	.
=13	=13	=13	=13	=13	=13	=13
!	!	!	!LO:N:vis=4	!	!	!
8G	.	8f#	8b	.	(>16ddLL]	.
.	.	.	.	.	16ff#J)	.
8r	.	8r	8r	.	8eeJ|	.
8A	.	8a	8cc#X	.	(>16eeLL	.
.	.	.	.	.	16ggJ)	.
8r	.	8r	8r	.	8ff#J|	.
!	!	!	!LO:LB:g=original	!	!	!
=14	=14	=14	=14	=14	=14	=14
8B	.	8b	8dd	.	(>16ff#LL	.
.	.	.	.	.	16aaJ)	.
8r	.	8r	8r	.	8ggJ|	.
8c#X	.	8cc#X	8ff#	.	(>16ggLL	.
.	.	.	.	.	16bb)	.
8r	.	8r	8r	.	(>16ee	.
.	.	.	.	.	16ggJJ)	.
!LO:LB:g=original	!	!	!	!	!	!
=15	=15	=15	=15	=15	=15	=15
4d	.	4a	4dd	.	16ff#LL	.
.	.	.	.	.	16ddd	.
.	.	.	.	.	16ccc#X	.
.	.	.	.	.	16bbJJ	.
4r	.	4r	4r	.	8aaL	.
.	.	.	.	.	8ggJ	.
=16	=16	=16	=16	=16	=16	=16
*	*	*	*^	*	*	*
4c#X	.	4a	4gg	4g	.	8ggL	.
.	.	.	.	.	.	16eeeL	.
.	.	.	.	.	.	16ccc#XJJ	.
4r	.	4r	4r	4ryy	.	16aaLL	.
.	.	.	.	.	.	16gg	.
.	.	.	.	.	.	16ee	.
.	.	.	.	.	.	16ggJJ	.
=17	=17	=17	=17	=17	=17	=17	=17
4d	.	4a	4ff# 4a	4d	.	8ff#L	.
*	*	*	*	*	*	*Xtuplet	*
!	!	!	!	!	!	!LO:TUP:a:problem:klamra łukowa	!
.	.	.	.	.	.	24dddL	.
.	.	.	.	.	.	24ccc#X	.
.	.	.	.	.	.	24bbJJ	.
4r	.	4r	4r	4ryy	.	8aaL	.
.	.	.	.	.	.	8aaJ	.
!	!	!LO:LB:g=original	!	!	!	!	!
=18	=18	=18	=18	=18	=18	=18	=18
4c#X	.	4a	4gg	4a	.	8aaL	.
.	.	.	.	.	.	16eeeL	.
.	.	.	.	.	.	16ccc#XJJ	.
4r	.	4r	4r	4ryy	.	16aaLL	.
.	.	.	.	.	.	16gg	.
.	.	.	.	.	.	16ee	.
.	.	.	.	.	.	16ggJJ	.
*	*	*	*v	*v	*	*	*
=19	=19	=19	=19	=19	=19	=19
8dL	.	8ddL	8r	.	16ff#LL	.
.	.	.	.	.	16aa	.
8F#	.	8f#	4ee	.	16dd	.
.	.	.	.	.	16eeJJ	.
8G	.	8g	.	.	4eeM	.
8AJ	.	8aJ	8cc#X	.	.	.
!	!	!	!	!	!LO:LB:g=original	!
=20	=20	=20	=20	=20	=20	=20
!	!	!	!LO:TX:a:t=P:problem:mixed beam	!	!LO:TX:a:t=P:problem:mixed beam	!
8DL	.	8dL	8dd\L	.	8dd\L	.
8F#	.	8f#	8f#/	.	8f#/	.
8G	.	8g	8g/	.	8g/	.
8AJ	.	8aJ	8a/J	.	8a/J	.
=21	=21	=21	=21	=21	=21	=21
16BLL	.	(>16bLL	16bLL	.	16bLL	.
!	!LO:DY:a:t=p&colon;	!	!	!	!	!
16A	p	16a	16a	.	16a	.
16B	.	16b)	16b	.	16b	.
16c#XJJ	.	16cc#XJJ	16cc#XJJ	.	16cc#XJJ	.
!LO:TX:a:t=P:problem:mixed beam	!	!	!LO:TX:a:t=P:problem:mixed beam	!	!LO:TX:a:t=P:problem:mixed beam	!
8d\L	.	8ddL	8dd\L	.	8dd\L	.
!	!	!LO:SIC:s=8G:v	!	!	!	!
8D/J	.	8eJ	8f#/J	.	8d/J	.
=22	=22	=22	=22	=22	=22	=22
16GLL	.	(>16gLL	16gLL	.	16gLL	.
!	!LO:DY:a:t=for	!	!	!	!	!
16F#	f	16f#	16f#	.	16f#	.
16G	.	16g	16g	.	16g	.
16AJJ	.	16aJJ)	16aJJ	.	16aJJ	.
8BL	.	8bL	8bL	.	8bL	.
8EJ	.	8eJ	8eJ	.	8eJ	.
=23	=23	=23	=23	=23	=23	=23
.	.	.	8qqg/	.	8qqg/	.
8F#L	.	8f#L	8f#L	.	8f#L	.
16EL	.	16eL	16eL	.	16eL	.
16DJJ	.	16dJJ	16dJJ	.	16dJJ	.
8AL	.	8aL	8a\L	.	8aL	.
8AJ	.	8aJ	8a\J	.	8aJ	.
=24	=24	=24	=24	=24	=24	=24
4D	.	4d	4d	.	4d	.
4r	.	4r	4r	.	4r	.
=25	=25	=25	=25	=25	=25	=25
*	*	*	*	*	*2\right	*
4D	.	4d	4d	.	[>2dd	.
4r	.	16f#LL	16aLL	.	.	.
.	.	16e	16g	.	.	.
.	.	16f#	16a	.	.	.
.	.	16gJJ	16bJJ	.	.	.
=26	=26	=26	=26	=26	=26	=26
2r	.	8aL	8ccL	.	2dd]	.
.	.	8a	8cc	.	.	.
.	.	8a	8cc	.	.	.
.	.	8aJ	8ccJ	.	.	.
=27	=27	=27	=27	=27	=27	=27
4D	.	(>8f#L	8a#XL	.	[>2dd	.
.	.	8gJ)	8bJ	.	.	.
!	!	!	!LO:TX:a:t=P:problem:dalsza część taktu nieczytelna - zamazany brzeg kartki	!	!	!
4r	.	8r	8r	.	.	.
.	.	8a	8r	.	.	.
!	!	!	!LO:LB:g=original	!	!	!
=28	=28	=28	=28	=28	=28	=28
4D	.	(>8f#L	8g#XL	.	2dd]	.
.	.	8gJ)	8bJ	.	.	.
4r	.	4r	4r	.	.	.
=29	=29	=29	=29	=29	=29	=29
4D	.	4d	4d	.	[>2dd	.
4r	.	16gLL	16bLL	.	.	.
.	.	16f#	16a	.	.	.
.	.	16g	16b	.	.	.
.	.	16aJJ	16ccJJ	.	.	.
=30	=30	=30	=30	=30	=30	=30
*	*	*	*tremolo	*	*	*
2r	.	8bL	8ddL	.	2dd]	.
.	.	8b	8ddJ	.	.	.
.	.	8b	8ddL	.	.	.
.	.	8bJ	8ddJ	.	.	.
*	*	*	*Xtremolo	*	*	*
=31	=31	=31	=31	=31	=31	=31
!LO:TX:a:t=P:problem:w źródle repetycja dwóch kolejnych taktów	!	!	!	!	!	!
4D	.	8g#XL	(>8bL	.	[>2dd	.
.	.	8aJ	8ccJ)	.	.	.
4r	.	8r	8r	.	.	.
.	.	8b	8dd	.	.	.
!	!	!LO:LB:g=original	!	!	!	!
=32	=32	=32	=32	=32	=32	=32
4D	.	8g#XL	8bL	.	4dd]	.
.	.	8bJ	8ccJ	.	.	.
4r	.	8r	4r	.	8ee	.
.	.	8r	.	.	(>16eeLL	.
.	.	.	.	.	80ff#LL	.
.	.	.	.	.	80gg	.
.	.	.	.	.	80aa	.
.	.	.	.	.	80bb	.
.	.	.	.	.	80cccJJJJ)	.
!	!	!	!	!	!LO:LB:g=original	!
=33	=33	=33	=33	=33	=33	=33
4D	.	4d	4d	.	2ddd	.
4r	.	16f#LL	16aLL	.	.	.
!	!	!	!	!LO:DY:a:t=p&colon;	!	!
.	.	16e	16g	p	.	.
.	.	16f#	16a	.	.	.
.	.	16gJJ	16bJJ	.	.	.
=34	=34	=34	=34	=34	=34	=34
4D	.	8aL	8ccL	.	2ddd	.
.	.	8a	8cc	.	.	.
4r	.	8a	8cc	.	.	.
.	.	8f#J	8aJ	.	.	.
=35	=35	=35	=35	=35	=35	=35
*2\right	*	*2\right	*2\right	*	*	*
*tremolo	*	*	*	*	*	*
*	*	*tremolo	*tremolo	*	*	*
8GL	.	8gL	8bL	.	16dddLL	.
.	.	.	.	.	(>16ccc	.
8G	.	8g	8b	.	16bb	.
.	.	.	.	.	16cccJJ)	.
8G	.	8g	8b	.	8bb	.
8GJ	.	8gJ	8bJ	.	8r	.
!LO:LB:g=original	!	!	!	!	!	!
=36	=36	=36	=36	=36	=36	=36
8GL	.	8gL	8bL	.	16bbLL	.
.	.	.	.	.	16aa	.
8G	.	8g	8b	.	(>16gg	.
.	.	.	.	.	16aaJJ)	.
8G	.	8g	8b	.	8gg	.
8GJ	.	8gJ	8bJ	.	8r	.
=37	=37	=37	=37	=37	=37	=37
8GL	.	8gL	8bL	.	16ggLL	.
.	.	.	.	.	(>16ffn	.
8G	.	8g	8b	.	16ee	.
.	.	.	.	.	16ffJJ)	.
8G	.	8g	8b	.	8ee	.
8GJ	.	8gJ	8bJ	.	8r	.
=38	=38	=38	=38	=38	=38	=38
8GL	.	8gL	8bL	.	4G	.
8G	.	8g	8b	.	.	.
8G	.	8g	8b	.	4ddd	.
8GJ	.	8gJ	8bJ	.	.	.
*	*	*	*Xtremolo	*	*	*
*	*	*Xtremolo	*	*	*	*
*Xtremolo	*	*	*	*	*	*
=39	=39	=39	=39	=39	=39	=39
4G	.	4g	4b	.	16dddLL	.
.	.	.	.	.	16bb	.
.	.	.	.	.	16fffn	.
.	.	.	.	.	16dddJJ	.
8r	.	8r	8r	.	16fffnLL	.
.	.	.	.	.	16ddd	.
!	!	!	!	!LO:DY:a:t=for	!	!
8G	.	8g	8b	f	16bb	.
.	.	.	.	.	16ff#JJ	.
=40	=40	=40	=40	=40	=40	=40
!	!	!	!LO:TX:a:t=P:problem:mixed beam	!	!LO:TX:a:t=P:problem:mixed beam	!
8cL	.	8ccL	8cc\L	.	8ee\L	.
8E	.	8e	8c/	.	8ccc\	.
8Fn	.	8fn	8d/	.	8d/	.
8GJ	.	8gJ	8b/J	.	8b/J	.
=41	=41	=41	=41	=41	=41	=41
8CL	.	8cL	4c	.	4c	.
8GGJ	.	8GJ	.	.	.	.
!	!LO:DY:a:t=for	!	!	!	!	!
4CC	f	4C	4r	.	8r	.
.	.	.	.	.	(>16cccLL	.
.	.	.	.	.	16gg#XJJ)	.
=42	=42	=42	=42	=42	=42	=42
!	!	!	!	!	!LO:SIC:s=8gg#:v	!
8r	.	8bL	8r	.	(>8ggL	.
8cL	.	8ccJ	8eL	.	8aaJ)	.
(>8B	.	8r	8g#X	.	8r	.
8AJ)	.	8cc	8aJ	.	(>16cccLL	.
.	.	.	.	.	16eeJJ)	.
!	!	!	!	!	!LO:LB:g=original	!
=43	=43	=43	=43	=43	=43	=43
8r	.	8ccL	8r	.	(>8eeL	.
8BL	.	8ddJ	(<8dL	.	8ddJ)	.
(>8A	.	4r	8c)	.	8r	.
8GJ)	.	.	8BJ	.	(>16bbLL	.
.	.	.	.	.	16ff#JJ)	.
!	!	!	!LO:LB:g=original	!	!	!
=44	=44	=44	=44	=44	=44	=44
8r	.	8aL	8r	.	8ff#L	.
8BL	.	8bJ	8dL	.	8ggJ	.
(>8A	.	8r	(<8f#	.	8r	.
8GJ)	.	8b	8gJ)	.	(>16bbLL	.
.	.	.	.	.	16ddJJ)	.
=45	=45	=45	=45	=45	=45	=45
8r	.	8bL	8r	.	8ddL	.
(>8AL	.	8aJ	8cL	.	8ccJ	.
8G)	.	8r	8B	.	8r	.
8F#J	.	8d	8AJ	.	(>16aaLL	.
.	.	.	.	.	16ccJJ)	.
=46	=46	=46	=46	=46	=46	=46
!	!	!	!LO:TX:a:t=P:problem:mixed beam	!	!	!
8.GL	.	8.gL	8.G/L	.	8.bL	.
16dJk	.	16ddJk	16dd\Jk	.	16ddJk	.
16cLL	.	16ccLL	16cc\LL	.	16cc\LL	.
16B	.	(>16b	16b\	.	16b\	.
16A	.	16a	16a\	.	16a\	.
16GJJ	.	16gJJ)	16g\JJ	.	16g\JJ	.
!	!	!LO:LB:g=original	!	!	!	!
=47	=47	=47	=47	=47	=47	=47
8.DL	.	8.dL	4d	.	4d	.
16EJk	.	16eJk	.	.	.	.
16D\LL	.	16d\LL	4r	.	4r	.
16C\	.	16c\	.	.	.	.
16BB\	.	16B\	.	.	.	.
16AA\JJ	.	16A\JJ	.	.	.	.
=48	=48	=48	=48	=48	=48	=48
!	!	!	!	!	!	!LO:DY:a:t=for
4GG	.	4G	4b 4d 4G	.	4gg/ 4b/ 4d/	f
4r	.	4r	4r	.	16gLL	.
.	.	.	.	.	(<16f#	.
.	.	.	.	.	16g	.
.	.	.	.	.	16aJJ)	.
=49	=49	=49	=49	=49	=49	=49
8r	.	8r	8r	.	8gL	.
8BL	.	8bL	(<8dL	.	8g	.
8c	.	8cc	8e	.	8g	.
8BJ	.	8bJ	8dJ)	.	8gJ	.
=50	=50	=50	=50	=50	=50	=50
8AL	.	8aL	8f#L	.	8ccML	.
8GJ	.	8gJ	8g	.	8b	.
4r	.	4r	8cc	.	8eeM	.
.	.	.	8bJ	.	8ddJ	.
=51	=51	=51	=51	=51	=51	=51
8DL	.	8dL	8aL	.	8ccML	.
8GJ	.	8gJ	8gJ	.	8bJ	.
4r	.	4r	4r	.	4r	.
=52	=52	=52	=52	=52	=52	=52
4G	.	4g	4b 4d 4G	.	4gg/ 4b/ 4d/	.
4r	.	4r	4r	.	16gLL	.
.	.	.	.	.	(<16f#	.
.	.	.	.	.	16g	.
.	.	.	.	.	16aJJ)	.
!LO:LB:g=original	!	!	!	!	!LO:LB:g=original	!
=53	=53	=53	=53	=53	=53	=53
8r	.	8r	8r	.	8gL	.
8BL	.	8bL	(<8dL	.	8g	.
8c	.	8cc	8e	.	8g	.
8BJ	.	8bJ	8dJ)	.	8gJ	.
=54	=54	=54	=54	=54	=54	=54
8AL	.	8aL	8f#L	.	8ccML	.
8GJ	.	8gJ	8g	.	8b	.
4r	.	4r	8cc	.	8eeM	.
.	.	.	8bJ	.	8ddJ	.
=55	=55	=55	=55	=55	=55	=55
8DL	.	8ccL	8aL	.	(>8ff#mL	.
8GJ	.	8bJ	8gJ	.	8ggJ)	.
4r	.	4r	4r	.	8r	.
!	!	!	!	!	!LO:TX:a:t=P:problem:mixed beam	!
.	.	.	.	.	(>\16eeLL	.
.	.	.	.	.	16f#/JJ)	.
=56	=56	=56	=56	=56	=56	=56
!	!	!LO:TX:a:t=P:problem:w źródle brak 2 kolejnych pustych taktów; dodano je, aby zgadzały się piony brzmieniowe	!LO:TX:a:t=P:problem:w źródle brak 3 kolejnych pustych taktów; dodano je, aby zgadzały się piony brzmieniowe	!	!	!
8r	.	2ryy	2ryy	.	8f#L	.
8cL	.	.	.	.	8g	.
8BJ	.	.	.	.	8a	.
8r	.	.	.	.	8cJ	.
=57	=57	=57	=57	=57	=57	=57
!	!	!	!	!	!LO:TX:a:t=P:problem:w źródle brak 2 kolejnych pustych taktów; dodano je, aby zgadzały się piony brzmieniowe	!
8r	.	2ryy	2ryy	.	2ryy	.
(>8DL	.	.	.	.	.	.
8G)J	.	.	.	.	.	.
8r	.	.	.	.	.	.
=58	=58	=58	=58	=58	=58	=58
8r	.	8r	2ryy	.	2ryy	.
8cL	.	8dL	.	.	.	.
8BJ	.	8dJ	.	.	.	.
8r	.	8r	.	.	.	.
=59	=59	=59	=59	=59	=59	=59
8r	.	8r	8r	.	4c	.
!	!	!LO:TX:a:t=P:problem:mixed beam	!	!	!	!
(>8DL	.	8d\L	8AL	.	.	.
!	!	!	!	!	!LO:TX:a:t=P:problem:mixed beam	!
8G)J	.	8G/J	8BJ	.	8B/L	.
8r	.	8r	8r	.	16ee\L	.
.	.	.	.	.	16f#/JJ	.
=60	=60	=60	=60	=60	=60	=60
8r	.	8r	8r	.	4f#	.
(>8cL	.	8dL	8AL	.	.	.
8B)J	.	8dJ	8BJ	.	8gL	.
8r	.	8r	8r	.	16aL	.
.	.	.	.	.	16cJJ	.
=61	=61	=61	=61	=61	=61	=61
8r	.	8r	8r	.	4c	.
!LO:TX:a:t=P:problem:mixed beam	!	!	!	!	!	!
8D\L	.	8dL	8AL	.	.	.
8G\	.	8G	8G	.	8BL	.
8BB/J	.	8BJ	8dJ	.	8gJ	.
!	!	!	!LO:LB:g=original	!	!	!
=62	=62	=62	=62	=62	=62	=62
8C	.	8c	8e	.	(<16gLL	.
.	.	.	.	.	16bJ)	.
8r	.	8r	8r	.	8aJ|	.
8D/	.	8d	8f#	.	(>16aLL	.
.	.	.	.	.	16ccJ)	.
8r	.	8r	8r	.	8bJ|	.
=63	=63	=63	=63	=63	=63	=63
8E\	.	8e	8g	.	(>16bLL	.
.	.	.	.	.	16ddJ)	.
8r	.	8r	8r	.	8ccJ|	.
8F#\	.	8f#	8a	.	16ccLL	.
.	.	.	.	.	16ee	.
8r	.	8r	8r	.	16a	.
.	.	.	.	.	16ccJJ	.
=64	=64	=64	=64	=64	=64	=64
*	*	*	*	*	*Xtuplet	*
!	!	!LO:TX:a:t=P:problem:w źródle repetycja tego taktu	!	!	!	!
4G	.	4d	4g	.	8bL	.
!	!	!	!	!	!LO:TUP:a:problem:klamra łukowa, kropka zamiast numeru	!
.	.	.	.	.	24ggL	.
.	.	.	.	.	24ff#	.
.	.	.	.	.	24eeJJ	.
4r	.	4r	4r	.	8ddL	.
.	.	.	.	.	8ddJ	.
=65	=65	=65	=65	=65	=65	=65
4F#	.	4d	4dd	.	8ddL	.
.	.	.	.	.	16aaL	.
.	.	.	.	.	16ff#JJ	.
4r	.	4r	4r	.	16ddLL	.
.	.	.	.	.	16cc	.
.	.	.	.	.	16a	.
.	.	.	.	.	16ccJJ	.
!	!	!	!	!	!LO:LB:g=original	!
=66	=66	=66	=66	=66	=66	=66
!	!	!LO:TX:a:t=P:problem:w źródle repetycja tego taktu	!	!	!	!
4G	.	4d	4b 4d	.	8bL	.
!	!	!	!	!	!LO:TUP:a:problem:klamra łukowa, kropka zamiast numeru	!
.	.	.	.	.	24ggL	.
.	.	.	.	.	24ff#	.
.	.	.	.	.	24eeJJ	.
4r	.	4r	4r	.	8ddL	.
.	.	.	.	.	8ddJ	.
=67	=67	=67	=67	=67	=67	=67
4F#	.	4d	4d	.	8ddL	.
.	.	.	.	.	16aaL	.
.	.	.	.	.	16ff#JJ	.
4r	.	4r	4r	.	16ddLL	.
.	.	.	.	.	16cc	.
.	.	.	.	.	16a	.
.	.	.	.	.	16ccJJ	.
=68	=68	=68	=68	=68	=68	=68
!LO:TX:a:t=P:problem:mixed beam	!	!LO:TX:a:t=P:problem:mixed beam	!	!	!	!
8G\L	.	8g\L	8r	.	16b\LL	.
.	.	.	.	.	16dd\	.
8GG/	.	8B/	4g	.	16g\	.
.	.	.	.	.	16a\JJ	.
8C/	.	8c/	.	.	4aM\	.
8D/J	.	8d/J	8f#	.	.	.
!LO:LB:g=original	!	!	!	!	!	!
=69	=69	=69	=69	=69	=69	=69
!LO:TX:a:t=P:problem:mixed beam	!	!LO:TX:a:t=P:problem:mixed beam	!	!	!	!
8G\L	.	8g\L	8gL	.	8gL	.
8BB/	.	8B/	8B	.	8B	.
8C/	.	8c/	8c	.	8c	.
8D/J	.	8d/J	8dJ	.	8dJ	.
=70	=70	=70	=70	=70	=70	=70
(>16ELL	.	16eLL	16eLL	.	16eLL	.
16D	.	16d	16d	.	16d	.
16E)	.	16e	16e	.	16e	.
16F#JJ	.	16f#JJ	16f#JJ	.	16f#JJ	.
!LO:TX:a:t=P:problem:mixed beam	!	!LO:TX:a:t=P:problem:mixed beam	!	!	!	!
8G\L	.	8g\L	8gL	.	8gL	.
8BB/J	.	8B/J	8BJ	.	8BJ	.
=71	=71	=71	=71	=71	=71	=71
16CLL	.	16cLL	16cLL	.	16cLL	.
16BB	.	16B	16B	.	16B	.
16C	.	16c	16c	.	16c	.
16DJJ	.	16dJJ	16dJJ	.	16dJJ	.
!	!	!LO:TX:a:t=P:problem:mixed beam	!	!	!	!
8EL	.	8e\L	8eL	.	8eL	.
8AAJ	.	8A/J	8AJ	.	8AJ	.
=72	=72	=72	=72	=72	=72	=72
8BBL	.	8BL	8BL	.	8BL	.
16AAL	.	16AL	16AL	.	16AL	.
16GGJJ	.	16GJJ	16GJJ	.	16GJJ	.
8DL	.	8dL	8dL	.	8dL	.
8DJ	.	8dJ	8dJ	.	8dJ	.
!	!	!LO:LB:g=original	!	!	!	!
=73	=73	=73	=73	=73	=73	=73
4GG;	.	4G;;	4G	.	4G;	.
4r	.	4r	4r	.	4r	.
.	.	.	.	.	.	.
=74||	=74	=74||:	=74	=74	=74	=74
!LO:TX:a:t=8	!	!	!	!LO:DY:a:t=p&colon;	!	!
!LO:N:vis=00	!	!LO:N:vis=00	!	!	!	!
0r	.	0r	8e	p	8r	.
.	.	.	8r	.	8bb	.
!	!	!	!	!	!	!LO:DY:a:t=p&colon;
.	.	.	8f#	.	8r	p
.	.	.	8r	.	8dd#X	.
!	!	!	!LO:LB:g=original	!	!	!
=75	=75	=75	=75	=75	=75	=75
.	.	.	8g	.	8r	.
.	.	.	8r	.	8ee	.
.	.	.	8e	.	8r	.
.	.	.	8r	.	8cc	.
!	!	!	!	!	!LO:PB:g=original	!
=76	=76	=76	=76	=76	=76	=76
.	.	.	4.d#X	.	8r	.
.	.	.	.	.	8ccL	.
.	.	.	.	.	8b	.
.	.	.	8d#	.	8aJ	.
=77	=77	=77	=77	=77	=77	=77
.	.	.	.	.	8qqa/	.
.	.	.	16eLL	.	4g	.
.	.	.	16f#	.	.	.
.	.	.	16g	.	.	.
.	.	.	16aJJ	.	.	.
.	.	.	8bL	.	4f#	.
.	.	.	8aJ	.	.	.
=78	=78	=78	=78	=78	=78	=78
!LO:N:vis=00	!	!LO:N:vis=00	!	!	!	!
0r	.	0r	8g	.	8r	.
.	.	.	8r	.	8ee	.
.	.	.	8e	.	8r	.
.	.	.	8r	.	8gg	.
=79	=79	=79	=79	=79	=79	=79
.	.	.	8d#X	.	8r	.
.	.	.	8r	.	8ff#	.
.	.	.	8B	.	8r	.
.	.	.	8r	.	8aa	.
=80	=80	=80	=80	=80	=80	=80
.	.	.	8eL	.	8ggL	.
.	.	.	8g	.	8ee	.
.	.	.	8a	.	8ff#	.
.	.	.	8bJ	.	8dd#XJ	.
=81	=81	=81	=81	=81	=81	=81
.	.	.	8eL	.	4ee	.
.	.	.	8gJ	.	.	.
.	.	.	16bLL	.	4r	.
.	.	.	16a	.	.	.
.	.	.	16g	.	.	.
.	.	.	16f#JJ	.	.	.
!LO:TX:a:t=P:problem:w źródle kreska taktowa :||:	!	!LO:TX:a:t=P:problem:w źródle kreska taktowa :||:	!LO:TX:a:t=P:problem:w źródle kreska taktowa :||:	!	!LO:TX:a:t=P:problem:w źródle kreska taktowa :||:	!
=82||	=82||	=82||;	=82||;	=82||	=82||;	=82||
4G	.	4g	4g	.	4gg/ 4b/ 4d/	.
!LO:TX:a:t=P:problem:mixed beam	!	!	!	!	!	!
!	!	!	!	!LO:DY:a:t=for	!	!
8BB/L	.	4g	8BL	f	8dd	.
8G\J	.	.	8gJ	.	8r	.
=83	=83	=83	=83	=83	=83	=83
!	!	!	!	!	!LO:N:vis=4	!
8CL	.	4g	8cL	.	8ee	.
8A	.	.	8a	.	8r	.
8D	.	8f#L	8d	.	(>16cccLL	.
.	.	.	.	.	16aaJ)	.
8dJ	.	8aJ	8ddJ	.	8ff#'J	.
=84	=84	=84	=84	=84	=84	=84
!LO:TX:a:t=P:problem:mixed beam	!	!	!LO:TX:a:t=P:problem:mixed beam	!	!	!
8B\L	.	4g	8b\L	.	4gg/ 4b/ 4d/	.
8G\	.	.	8g\	.	.	.
8BB/	.	4g	8B/	.	8dd	.
8G\J	.	.	8g/J	.	8r	.
=85	=85	=85	=85	=85	=85	=85
8CL	.	4g	8cL	.	8ee	.
8A	.	.	8a	.	8r	.
8D	.	8f#L	8d	.	(>16cccLL	.
.	.	.	.	.	16aaJ)	.
8dJ	.	8aJ	8ddJ	.	8ff#J|	.
=86	=86	=86	=86	=86	=86	=86
!LO:TX:a:t=P:problem:mixed beam	!	!	!	!	!	!
8B\L	.	8gL	8bL	.	8ggL	.
8BB/	.	8B	8a	.	8b	.
8C/	.	8c	8cc	.	8cc	.
8D/J	.	8dJ	8ddJ	.	8ddJ	.
!	!	!	!LO:LB:g=original	!	!	!
=87	=87	=87	=87	=87	=87	=87
!LO:TX:a:t=P:problem:mixed beam	!	!	!	!	!	!
8GG/L	.	4G	4g	.	4g	.
8B\J	.	.	.	.	.	.
16dLL	.	4r	4r	.	4r	.
16c	.	.	.	.	.	.
16B	.	.	.	.	.	.
16AJJ	.	.	.	.	.	.
!	!	!	!	!	!LO:LB:g=original	!
=88	=88	=88	=88	=88	=88	=88
4G#X	.	8r	8r	.	4r	.
.	.	8b	8dd	.	.	.
4E	.	8r	8r	.	4gg#X	.
.	.	8B	8d	.	.	.
=89	=89	=89	=89	=89	=89	=89
!	!	!LO:TX:a:t=P:problem:mixed beam	!	!	!	!
4A	.	8A/L	8cL	.	(>16aaLL	.
.	.	.	.	.	16gg#X	.
.	.	8a\J	8AJ	.	16aa	.
.	.	.	.	.	16bbJJ)	.
4r	.	8r	4r	.	4ccc	.
.	.	8r	.	.	.	.
!LO:TX:a:t=P:problem:	!	!	!	!	!	!
=90	=90	=90	=90	=90	=90	=90
4F#	.	8r	8r	.	4r	.
.	.	8a	8cc	.	.	.
4D	.	8r	8r	.	4ff#	.
.	.	8A	8c	.	.	.
=91	=91	=91	=91	=91	=91	=91
!	!	!LO:TX:a:t=P:problem:mixed beam	!	!	!	!
4G	.	8G/L	8BL	.	16ggLL	.
.	.	.	.	.	(>16ff#	.
.	.	8g\J	8GJ	.	16gg	.
.	.	.	.	.	16aaJJ)	.
4GG	.	4G	8r	.	8bbL	.
.	.	.	8b	.	[>8bbJ	.
=92	=92	=92	=92	=92	=92	=92
4AA	.	4A	8.cc\L	.	8bbL]	.
.	.	.	.	.	16aaL	.
.	.	.	16b\K	.	16ggJJ	.
4AA#X	.	4A#X	8.a\	.	8ff#L	.
.	.	.	.	.	8eeJ	.
.	.	.	16g\Jk	.	.	.
=93	=93	=93	=93	=93	=93	=93
!LO:TX:a:t=P:problem:mixed beam	!	!LO:TX:a:t=P:problem:mixed beam	!	!	!	!
8BB/L	.	8B/L	8f#L	.	8dd#XL	.
8c\J	.	8b\J	8BJ	.	8bJ	.
16BLL	.	16bLL	4r	.	4r	.
16A	.	16a	.	.	.	.
16G	.	16g	.	.	.	.
16F#JJ	.	16f#JJ	.	.	.	.
=94	=94	=94	=94	=94	=94	=94
4E	.	4e	8e	.	8r	.
.	.	.	8r	.	8bb	.
4r	.	4r	8f#	.	8r	.
.	.	.	8r	.	8dd#X	.
=95	=95	=95	=95	=95	=95	=95
!LO:N:vis=00	!	!LO:N:vis=00	!	!	!	!
0r	.	0r	8g	.	8r	.
.	.	.	8r	.	8ee	.
.	.	.	8e	.	8r	.
.	.	.	8r	.	8cc	.
=96	=96	=96	=96	=96	=96	=96
.	.	.	4.d#X	.	8r	.
.	.	.	.	.	8ccL	.
.	.	.	.	.	8b	.
.	.	.	8d#	.	8aJ	.
=97	=97	=97	=97	=97	=97	=97
.	.	.	.	.	8qqa/	.
.	.	.	16eLL	.	4g	.
.	.	.	16f#	.	.	.
.	.	.	16g	.	.	.
.	.	.	16aJJ	.	.	.
.	.	.	8bL	.	4f#	.
.	.	.	8aJ	.	.	.
=98	=98	=98	=98	=98	=98	=98
.	.	.	8g	.	8r	.
.	.	.	8r	.	8ee	.
.	.	.	8e	.	8r	.
.	.	.	8r	.	8gg	.
!	!	!	!	!	!LO:LB:g=original	!
=99	=99	=99	=99	=99	=99	=99
!LO:N:vis=0	!	!LO:N:vis=0	!	!	!	!
1r	.	1r	8d#X	.	8r	.
.	.	.	8r	.	8ff#	.
.	.	.	8c	.	8r	.
.	.	.	8r	.	8aa	.
!	!	!	!LO:LB:g=original	!	!	!
=100	=100	=100	=100	=100	=100	=100
.	.	.	8eL	.	8ggL	.
.	.	.	8g	.	8ee	.
.	.	.	8a	.	8ff#	.
.	.	.	8bJ	.	8dd#XJ	.
=101	=101	=101	=101	=101	=101	=101
!	!	!LO:TX:a:t=P:problem:w źródle brak tego pustego taktu; dodano go, aby zgadzały się piony brzmieniowe	!	!	!	!
2r	.	2ryy	8eL	.	4ee	.
.	.	.	8gJ	.	.	.
.	.	.	16bLL	.	4r	.
.	.	.	16a	.	.	.
.	.	.	16g	.	.	.
!	!	!LO:TX:a:t=P:problem:w źródle ta adnotacja zapisana na pięciolinii, za ostatnim taktem	!LO:TX:a:t=P:problem:w źródle ta adnotacja zapisana na pięciolinii, za ostatnim taktem	!	!LO:TX:a:t=P:problem:w źródle ta adnotacja zapisana na pięciolinii, za ostatnim taktem	!
!LO:TX:b:i:t=Da Capo ad Signum Finis	!	!LO:TX:b:i:t=Da Capo ad Signo.	!LO:TX:b:i:t=Da Capo	!	!LO:TX:b:i:t=Da Capo	!
.	.	.	16f#JJ	.	.	.
!LO:TX:a:t=P:problem:w źródle końcowa kreska taktowa :|!	!	!LO:TX:a:t=P:problem:w źródle końcowa kreska taktowa :|!	!LO:TX:a:t=P:problem:w źródle końcowa kreska taktowa :||:	!	!LO:TX:a:t=P:problem:w źródle końcowa kreska taktowa :||:	!
!	!	!	!LO:TX:a:t=P:problem:w źródle fermata nad końcową kreską taktową	!	!LO:TX:a:t=P:problem:w źródle fermata nad końcową kreską taktową	!
==	==	==	==	==	==	==
*-	*-	*-	*-	*-	*-	*-
!!!system-decoration: [(s1,s2,s3,s4)]
!!!RDF**kern: > = above
!!!RDF**kern: < = below
!!!EED: Antoni Szymański
!!!EST: 2020-12-07
!!!AIN: 1 empty 1 viola 2 violn
!!!ENC: Berenika Jozajtis
!!!END: 2020-05-29
!!!RDF**kern: | = vertical stroke
